boxicons/svg/solid/bxs-layer-plus.svg

<svg xmlns="http://www.w3.org/2000/svg" width="24" height="24" viewBox="0 0 24 24"><path d="m2.513 12.833 9.022 5.04a.995.995 0 0 0 .973.001l8.978-5a1 1 0 0 0-.002-1.749l-9.022-5a1 1 0 0 0-.968-.001l-8.978 4.96a1 1 0 0 0-.003 1.749z"/><path d="m3.485 15.126-.971 1.748 9 5a1 1 0 0 0 .971 0l9-5-.971-1.748L12 19.856l-8.515-4.73zM20 8V6h2V4h-2V2h-2v2h-2v2h2v2z"/></svg>

<svg xmlns="http://www.w3.org/2000/svg" width="24" height="24" viewBox="0 0 24 24"><path d="M2.513,12.833l9.022,5.04C11.687,17.958,11.854,18,12.022,18s0.335-0.042,0.486-0.126l8.978-5 C21.804,12.697,22,12.362,22,11.999s-0.197-0.698-0.516-0.874l-9.022-5c-0.301-0.167-0.667-0.167-0.968-0.001l-8.978,4.96 C2.198,11.26,2.001,11.594,2,11.958S2.195,12.656,2.513,12.833z"/><path d="M3.485 15.126l-.971 1.748 9 5C11.665 21.958 11.833 22 12 22s.335-.042.485-.126l9-5-.971-1.748L12 19.856 3.485 15.126zM20 8L20 6 22 6 22 4 20 4 20 2 18 2 18 4 16 4 16 6 18 6 18 8z"/></svg>
